!!!COM: Ravel, Maurice
!!!CDT: 1875/03/07/-1937/12/28/
!!!OTL: Sonatine pour le piano
!!!PPR: Durand
**kern	**kern	**dynam
*staff2	*staff1	*staff1/2
*Ipiano	*Ipiano	*Ipiano
*>[I,A,A1,A,B]	*>[I,A,A1,A,B]	*>[I,A,A1,A,B]
*>I	*>I	*>I
*clefG2	*clefG2	*clefG2
*k[f#c#g#]	*k[f#c#g#]	*k[f#c#g#]
*M2/4	*M2/4	*M2/4
*MM60	*MM60	*MM60
=1-	=1-	=1-
*^	*^	*
8r	8r	8r	8r	.
16cc#/	8f#\	(8ff#/	32r	p
.	.	.	32a\LLL	.
16r	.	.	32cc#\	.
.	.	.	32a\JJJ	.
16g#/LL	[4c#\	[4cc#/	32r	.
.	.	.	32e\LLL	.
16r	.	.	32g#\	.
.	.	.	32e\JJJ	.
16g#/JJ	.	.	32r	.
.	.	.	32e\LLL	.
16r	.	.	32g#\	.
.	.	.	&(32e\JJJ&)	.
=2	=2	=2	=2	=2
16g#/LL	8c#\L]	8cc#/L]	32r	.
.	.	.	32e\LLL	.
16r	.	.	32g#\	.
.	.	.	32e\JJ	.
16f#/JJ	16B\L	16b/L	32b\LL	<
.	.	.	32d\	.
16r	16c#\JJ	16cc#/JJ	32cc#\	.
.	.	.	32d\JJJ	.
16a/LL	8d\L	8dd/L	32r	.
.	.	.	32f#\LLL	.
16r	.	.	32a\	.
.	.	.	32f#\JJ	.
16b/JJ	16e\L	16ee/L	32ee\LL	.
.	.	.	32g#\	.
16r	16f#\JJ	16ff#/JJ	32ff#\	.
.	.	.	32g#\JJJ	.
=3	=3	=3	=3	=3
16cc#/LL	8g#\L	8gg#/L	32a\LLL	.
.	.	.	32cc#\	.
16r	.	.	32a\JJ	.
.	.	.	16r	.
16cc#/	8e\	8ee/	.	.
.	.	.	32a\LL	.
16r	.	.	32cc#\	.
.	.	.	32a\JJJ	.
16cc#/JJ	&(16g#\Jk&)	16gg#/Jk)	16r	.
16r	16r	16r	16a\LL	.
16cc#/	8f#^\	(8ff#/	32cc#\JJk	pp
.	.	.	32a\LLL	.
16r	.	.	32cc#\	.
.	.	.	32a\JJJ	.
*v	*v	*	*	*
*	*v	*v	*
=4!|:	=4!|:	=4!|:
*>A	*>A	*>A
*^	*	*
*	*	*^	*
16g#/LL	[4c#\	[4cc#/	32r	.
.	.	.	32e\LLL	.
16r	.	.	32g#\	.
.	.	.	32e\JJ	.
16g#/JJ	.	.	32r	.
.	.	.	32e\LL	.
16r	.	.	32g#\	.
.	.	.	32e\JJJ	.
16g#/LL	8c#\L]	8cc#/L]	32r	.
.	.	.	32e\LLL	.
16r	.	.	32g#\	.
.	.	.	32e\JJ	.
16f#/JJ	16B\L	16b/L	32b\LL	.
.	.	.	32d\	.
16r	16c#\JJ	16cc#/JJ	32cc#\	.
.	.	.	32d\JJJ	.
=5	=5	=5	=5	=5
16a/LL	8d\L	8dd/L	32r	.
.	.	.	32f#\LLL	.
16r	.	.	32a\	.
.	.	.	32f#\JJJ	.
16b/JJ	16e\L	16ee/L	32ee\LLL	.
.	.	.	32g#\	.
16r	16f#\JJ	16ff#/JJ	32ff#\	.
.	.	.	32g#\JJJ	.
16cc#/LL	&(8g#\L&)	8gg#/L)	32r	.
.	.	.	32a\LLL	.
16r	.	.	32cc#\	.
.	.	.	32a\	.
16cc#/JJ	8f#\J	(8ff#/J	32r	mf
.	.	.	32a\	.
16r	.	.	32cc#\	.
.	.	.	32a\JJJ	.
=6	=6	=6	=6	=6
8a#/ 8ee/L	2f#\	[4ccc#/	32r	.
.	.	.	32cc#\LLL	.
.	.	.	32gg#\	.
.	.	.	32cc#\JJ	.
8a#/	.	.	32r	.
.	.	.	32cc#\LL	.
.	.	.	32gg#\	.
.	.	.	32cc#\JJJ	.
8ee/	.	16ccc#/LL]	32r	.
.	.	.	32cc#\LLL	.
.	.	16ccc#/	32gg#\	.
.	.	.	32cc#\JJ	.
&(8a#/J&)	.	16ddd/	32ggn\LL	.
.	.	.	32ee\	.
.	.	16eee/JJ	32gg\	.
.	.	.	32ee\JJJ	.
=7	=7	=7	=7	=7
(8dd'/L	4e\ 4g#\	8ccc#/L	32r	.
.	.	.	32cc#\LLL	.
.	.	.	32ff#\	.
.	.	.	32cc#\JJ	.
8dd'/J)	.	16bb/L	32ee\LL	.
.	.	.	32b\	.
.	.	16gg#/JJ	32gg#\	.
.	.	.	32b\JJJ	.
(8B/ 8d#/ 8a/L	4r	8ff#/L	32r	.
.	.	.	32f#\LLL	.
.	.	.	32cc#\	.
.	.	.	32f#\JJ	.
8dn/) 8f#/ 8ccn/J	.	8aa/J)	32r	.
.	.	.	32a\LL	.
.	.	.	32ee\	.
.	.	.	32a\JJJ	.
=8	=8	=8	=8	=8
8a#/ 8ee/L	2f#\	([4ccc#/	32r	.
.	.	.	32cc#\LLL	.
.	.	.	32gg#\	.
.	.	.	32cc#\JJ	.
8a#/	.	.	32r	.
.	.	.	32cc#\LL	.
.	.	.	32gg#\	.
.	.	.	32cc#\JJJ	.
8ee/	.	16ccc#/LL]	32r	.
.	.	.	32cc#\LLL	.
.	.	16ccc#/	32gg#\	.
.	.	.	32cc#\JJ	.
&(8a#/J&)	.	16ddd/	32ggn\LL	.
.	.	.	32ee\	.
.	.	16eee/JJ	32gg\	.
.	.	.	32ee\JJJ	.
=9	=9	=9	=9	=9
8dd'/L	4e\ 4g#\	16ccc#/LL	32ff#\LLL	.
.	.	.	32cc#\	.
.	.	16bb/	32ee\	.
.	.	.	32b\JJ	.
8dd'/J	.	16ccc#/	32ff#\LL	.
.	.	.	32cc#\	.
.	.	16gg#/JJ	32gg#\)	.
.	.	.	32g#\JJJ	.
(8B/ 8d#/ 8a/L	4r	32r	4r	.
.	.	(32f#/LLL	.	<
.	.	32cc#/ 32ff#/	.	.
.	.	32f#/JJ)	.	.
8dn/) 8f#/ 8ccn/J	.	32r	.	.
.	.	(32a/LL	.	.
.	.	32ee/ 32aa/	.	.
.	.	32a/JJJ)	.	.
*	*	*v	*v	*
=10	=10	=10	=10
[8dd'/L	4e\ 4g#\	32r	.
.	.	(32cc#/LLL	.
.	.	32ff#/ 32ccc#/	.
.	.	32cc#/JJ	.
8dd/J]	.	16b/ 16ee/ 16bb/L	.
.	.	16gg#/JJ)	.
(8B/ 8d#/ 8a/L	4r	32r	.
.	.	(32f#/LLL	.
.	.	32cc#/ 32ff#/	.
.	.	32f#/JJ)	.
8dn/) 8f#/ 8ccn/J	.	32r	.
.	.	(32a/LL	.
.	.	32ee/ 32aa/	.
.	.	32a/JJJ)	.
*v	*v	*	*
=11	=11	=11
*	*^	*
4e/ 4g#/ 4dd/	(8ccc#^/L	8cc#\ 8ff#\L	f
.	16bb/L	8b\ 8ee\J	.
.	16gg#/JJ)	.	.
*clefF4	*	*	*
4E\ 4G#\ 4d\	(8cc#^/L	8c#\ 8f#\L	.
.	16b/L	8B\ 8e\J	.
.	16g#/JJ)	.	.
*clefG2	*	*	*
=12	=12	=12	=12
*^	*	*	*
4e^/ (4dd^/	8a\L	16r	16r	.
.	.	(16ccc#/LL	16cc#\ 16ff#\LK	.
.	8g#\J)	16bb/	8b\ 8ee\J	.
.	.	16gg#/JJ)	.	.
*v	*v	*	*	*
*clefF4	*	*	*
*^	*	*	*
(8A/L	4E^\ 4d^\	16r	16r	.
.	.	(16cc#/LL	16c#\ 16f#\LK	.
8G#/J)	.	16b/	8B\ 8e\J	.
.	.	16g#/JJ)	.	.
*v	*v	*	*	*
=13	=13	=13	=13
8r	(4..b/	8r	p
8D\ 8A\L	.	8f#\L	>
8C#\ 8G#\	.	8e#\	.
8En\ &(8B\J&)	.	&(8g#\J&)	.
.	16cc#/	.	.
=14	=14	=14	=14
8r	4..b/	8r	.
8D\ 8A\L	.	8f#\L	>
8C#\ 8G#\	.	8e#\	.
8En\ &(8B\J&)	.	&(8g#\J&)	.
.	16cc#/	.	.
=15	=15	=15	=15
8r	[4b/	8r	.
8D\ 8A\	.	8f#\L	>
*	*v	*v	*
*	*^	*
4C#\ &(4G#\&)	16b/LL]	8e#\	.
.	16cc#/	.	.
.	16ee/	&(8en\J&)	.
.	16cc#/JJ	.	.
=16	=16	=16	=16
8r	8a/L	8r	.
4BB\ (4F#\	16b/L	8d#\L	>
.	16cc#/JJ	.	.
.	8a/L	8dn\	.
8E\)	8g#/J)	&(8c#\J&)	.
=17	=17	=17	=17
8r	([4b/	8r	.
8D\ 8A\	.	8f#\L	>
*	*v	*v	*
*	*^	*
4C#\ &(4G#\&)	16b/LL]	8e#\	.
.	16cc#/	.	.
.	16ee/	&(8en\J&)	.
.	16cc#/JJ	.	.
=18	=18	=18	=18
8r	8a/L	8r	.
4BB\ 4F#\	16b/L	8d#\L	>
.	16cc#/JJ	.	.
.	8a/L	8dn\	.
&(8E\&)	8g#/J	&(8c#\J&)	.
=19	=19	=19	=19
8r	4f#/	8r	>
(4BBB/ 4BB/	.	4A\ 4d\	>
.	4e/)	.	.
8CC#/) 8C#/	.	8G#\ 8c#\	.
=20	=20	=20	=20
*^	*	*	*
4f#/	8f#\L	(8aa/L	8r	ppp
.	8F#\ 8d#\	16gg#/L	4a\	.
.	.	16ee/JJ	.	.
4e/	8e\	4cc#/)	.	.
.	8F#\ 8c#\J	.	&(8g#\&)	.
=21	=21	=21	=21	=21
4f#/	8f#\L	(8aa/L	8r	.
.	8F#\ 8d#\	16gg#/L	4a\	.
.	.	16ee/JJ	.	.
4e/	8e\	4cc#/)	.	.
.	8F#\ 8c#\J	.	&(8g#\&)	.
=22	=22	=22	=22	=22
4f#/	8f#\L	(8aa/L	8r	.
.	8F#\ 8d#\	16gg#/L	4a\	.
.	.	16ee/JJ	.	.
4e/	8e\	8cc#/L	.	.
.	8F#\ 8c#\J	8ee/J)	&(8g#\&)	.
*v	*v	*	*	*
=23	=23	=23	=23
4EE;\ 4BB;\	8r	4F#/ 4dn/ (4g#/	.
.	8dd\ 8ee\	.	.
8G#;/ 8d;/ 8e;/	4r	8f#;/ 8cc#;/)	.
8AA\ 8E\	.	8c#/ (8a/	>
*	*v	*v	*
=24	=24	=24
*^	*	*
8r	4.GGn\ &(4.D\&)	4.B/ 4.d/ 4.e/)	.
*clefG2	*clefG2	*	*
4dd/ 4ee/	.	.	.
*clefF4	*clefF4	*	*
8r	8AA\ 8E\	8c#/ (8a/	>
=25	=25	=25	=25
8r	4.GGn\ &(4.D\&)	4.B/ 4.d/ 4.e/)	.
*clefG2	*clefG2	*	*
4dd/ 4ee/	.	.	.
*clefF4	*clefF4	*	*
8r	8AA\ 8E\	8c#/ (8a/	>
*v	*v	*	*
=26	=26	=26
*>A1	*>A1	*>A1
*^	*	*
4r	8GGn'\ &(8D'\L&)	8B'/ 8d'/ 8e'/L)	.
.	8FF#^\ (8C#^\J	8A/ (8f#/J	p
*	*	*clefF4	*clefF4
8r	4CC#\ (4GG#\)	[4E\ 4G#\ [4c#\)	.
8C#^/	.	.	.
*v	*v	*	*
=27	=27	=27
*	*^	*
8C#\L)	8c#/L]	8E\] 8G#\L	.
16BB\L	16B/L	8D\ 8F#\J	.
16C#\JJ	16c#/JJ	.	.
8D\L	8d/L	8F#\ 8A\L	.
16E\L	16e/L	8G#\ 8B\J	.
16F#\JJ	16f#/JJ	.	.
=28	=28	=28	=28
*^	*	*	*
4r	8G#\L	8g#/L	4A\ 4c#\	.
.	8E\J	8e/J	.	.
8r	&(16G#'\&)	16g#/	8A\ 8c#\	.
.	16r	16r	.	.
*clefG2	*clefG2	*v	*v	*
*	*	*clefG2	*clefG2
*	*	*^	*
16cc#/	8f#\	8ff#/	32r	pp
.	.	.	32a\LLL	.
16r	.	.	32cc#\	.
.	.	.	32a\JJJ	.
*	*	*v	*v	*
*v	*v	*	*
=29:|!	=29:|!	=29:|!
*>B	*>B	*>B
*^	*	*
4r	8en\ 8b\L	8B'/ 8d'/ 8e'/L	.
.	(8e^\ [8a^\J	[8A#/ (8f#/J	.
8r	4d\) 4a\]	4A#/] 4c#/)	.
*clefG2	*clefG2	.	.
[8e/ [8ee/	.	.	.
=30	=30	=30	=30
8e/] 8ee/]	8r	8r	.
*clefF4	*clefF4	*	*
8r	(8GGn^\ [8C#^\	[8A#^/ 8f#^/	.
8r	4FF#\) 4C#\]	4A#/] 4c#/	.
*clefG2	*clefG2	.	.
[8e/ [8ee/	.	.	.
*v	*v	*	*
=31	=31	=31
8e/] 8ee/]	8r	.
(4e/ 4ee/	4a#/ 4cc#/	p
16d/ 16dd/LL	[8a#/ [8cc#/	.
16e/ 16ee/JJ	.	.
=32	=32	=32
8f#/ 8ff#/L	8a#/] 8cc#/]	.
16d/ 16dd/L	4a#/ 4cc#/	.
16c#/JJ	.	.
8e/) 8ee/	.	.
([8e/ [8ee/	[8a#/ [8cc#/	.
=33	=33	=33
8e/] 8ee/]	8a#/] 8cc#/]	.
4e/ 4ee/	4a#/ 4cc#/	.
16d/ 16dd/LL	[8a#/ [8cc#/	.
16e/ 16ee/JJ	.	.
=34	=34	=34
*	*^	*
8f#/ 8ff#/L	8a#/] 8cc#/]	4r	.
16d/ 16dd/L	8a#/ 8cc#/	.	.
16c#/JJ)	.	.	.
c#q/LLL	.	.	.
dq/	.	.	.
f#q/JJJ	.	.	.
(8cc#\L	8ccc#/L	32ff#\LLL	mf
.	.	32dd\	.
.	.	32ff#\	.
.	.	32dd\JJ	.
8b\J	8bb/J	32ff#\LL	.
.	.	32dd\	.
.	.	32ff#\	.
.	.	32dd\JJJ	.
=35	=35	=35	=35
*^	*	*	*
[4f#/	8r	[4ff#/	32cc#\LLL	.
.	.	.	32a\	.
.	.	.	32cc#\	.
.	.	.	32a\	.
.	[8B\	.	32cc#\	.
.	.	.	32a\	.
.	.	.	32cc#\	.
.	.	.	32a\JJJ	.
8f#/L]	&(4E\&) 4B\]	8ff#/L]	32b\LLL	.
.	.	.	32gn\	.
.	.	.	32b\	.
.	.	.	32g\JJ	.
16e/L	.	16ee/L	32b\LL	.
.	.	.	32g\	.
16f#/JJ	.	16ff#/JJ	32b\	.
.	.	.	32g\JJJ	.
*v	*v	*	*	*
=36	=36	=36	=36
8gn/L	8ggn/L	32dd\LLL	.
.	.	32b\	.
.	.	32dd\	.
.	.	32b\JJ	.
16a/L	16aa/L	32ee\LL	.
.	.	32cc#\	.
16b/JJ	16bb/JJ	32ee\	.
.	.	32cc#\JJJ	.
8cc#/L)	8ccc#/L	32ff#\LLL	.
.	.	32dd\	.
.	.	32ff#\	.
.	.	32dd\JJ	.
8b/J	8bb/J	32ff#\LL	.
.	.	32dd\	.
.	.	32ff#\	.
.	.	32dd\JJJ	.
=37	=37	=37	=37
*	*8va	*8va	*
(8dd#\L	[4fff#/	(32fff#\LLL	f
.	.	32aa\	.
.	.	32cccn\	.
.	.	32aa\	.
8ddd#\	.	32ccc\	.
.	.	32aa\	.
.	.	32ccc\	.
.	.	32aa\JJJ	.
8dd#\	16fff#/LL)]	32ccc\LLL	.
.	.	32aa\	.
.	16fff#/	32fff#\	.
.	.	32aa\	.
8b\J)	16gggn/	32gggn\	.
.	.	32aa\	.
.	16aaa/JJ	32aaa\	.
.	.	32aa\JJJ	.
=38	=38	=38	=38
(8ddn\L	8fff#/L	32fff#\LLL	.
.	.	32ggn\	.
.	.	32bb\	.
.	.	32gg\	.
8bb\	16eee/L	32eee\	.
.	.	32gg\	.
.	16ddd/JJ	32ddd\	.
.	.	32gg\JJJ	.
8dd\	8bb/L	32bb\LLL	.
.	.	32gg\	.
.	.	32bb\	.
.	.	32gg\JJ	.
8b\J)	8ddd/J	&(32ddd\LL&)	.
.	.	32gg\	.
.	.	32ddd\	.
.	.	32gg\JJJ	.
=39	=39	=39	=39
8dd#\L	4fff#/	(32fff#\LLL	.
.	.	32aa\	.
.	.	32cccn\	.
.	.	32aa\JJ	.
8ddd#\	.	32ccc\LL	.
.	.	32aa\	.
.	.	32ccc\	.
.	.	32aa\JJJ	.
8dd#\	&(16fff#/LL&)	32ccc\LLL	.
.	.	32aa\	.
.	16fff#/	32fff#\	.
.	.	32aa\JJ	.
&(8b\J&)	16gggn/	32gggn\LL	.
.	.	32aa\	.
.	16aaa/JJ	32aaa\	.
.	.	32aa\JJJ	.
=40	=40	=40	=40
(8ddn\L	16fff#/LL	32fff#\LLL	.
.	.	32ggn\	.
.	16eee/	32eee\	.
.	.	32gg\JJ	.
8bb\	16fff#/	32fff#\LL	.
.	.	32gg\	.
.	16ddd/JJ	32ddd\	.
.	.	32gg\JJJ	.
8dd\	8bb/L	32bb\LLL	.
.	.	32gg\	.
.	.	32bb\	.
.	.	32gg\	.
8b-\J)	8ddd/J	32ddd\)	.
.	.	32gg\	.
.	.	32ddd\	.
.	.	32gg\JJJ	.
=41	=41	=41	=41
*^	*	*	*
8dd/L	4a^\ 4ggn^\	8fff#/L	(8bbn\L	.
8cc#/J	.	16eee/L	8aa\J)	.
.	.	16ccc#/JJ	.	.
*	*	*X8va	*X8va	*
4r	4e\	8ggn/ &((8bb/L&)	8dd\L	.
.	.	16aa/L	&(8cc#\J&)	.
.	.	16ff#/JJ)	.	.
*clefF4	*clefF4	*	*	*
=42	=42	=42	=42	=42
4A\ 4gn\	8d/L	8ff#/L	(8b\L	>
.	8c#/J	16ee/L	8a\J)	.
.	.	&(16cc#/JJ&)	.	.
4r	4E\	(8b/L	8d\ 8gn\L	>
.	.	16a/L	8c#\J	.
.	.	16f#/JJ)	.	.
*v	*v	*	*	*
*	*v	*v	*
=43	=43	=43
8r	4..Gn/ 4..B/ (4..e/	pp
8AA/ 8D/L	.	.
&(8EE/&) 8AA/	.	.
8A/J	.	.
.	16f#/	.
=44	=44	=44
8r	4Gn/ 4B/ [4e/	.
8AA/ 8D/L	.	.
&(8EE/&) 8AA/	16e/LL]	.
.	16f#/	.
8A/J	16a/	.
.	16f#/JJ	.
=45	=45	=45
8r	8Gn/ 8B/ 8d/L	.
(8AA/ 8D/L	16e/L	.
.	16f#/JJ	.
8EE/) 8AA/	8G/ 8B/ 8d/L	.
8A/J	8c#/J)	.
=46	=46	=46
8r	4cn/ 4e/ [4a/	.
(8AA/ 8D/L	.	.
8EE/) 8AA/	16a/LL]	.
.	16b/	.
8F#/ 8f#/J	16dd/	.
.	16b/JJ	.
=47	=47	=47
8r	8Gn/ 8cn/ 8e/ 8gn/L	.
(8AA/ 8D/L	16A/L	.
.	16B/JJ	.
8EE/) 8AA/	8G/ 8c/ 8e/ 8g/	.
8F#/ 8f#/J	8r	.
=48	=48	=48
*^	*	*
4.A/ 4.B/	8r	(8.fn/ 8.a/ 8.dd/L	mf
.	8AA\ (8D\L	.	.
.	.	16ee/Jk)	.
.	8EE\ 8AA\J)	(8.f/ 8.a/ 8.dd/L	.
8A/ 8B/	8r	.	.
.	.	16ee/Jk)	.
=49	=49	=49	=49
4.d/ 4.e/	8r	8.b-\ 8.dd\ (8.ggn\L	.
.	8AA\ 8D\L	.	.
.	.	16aa\Jk)	.
.	8EE\ 8AA\J	8.b-\ 8.dd\ (8.gg\L	.
8d/ 8e/	8r	.	.
.	.	16aa\Jk)	.
=50	=50	=50	=50
4.A/ 4.B/	8r	8.fn\ 8.a\ (8.dd\L	.
.	8AA\ 8D\L	.	.
.	.	16ee\Jk)	.
.	8EE\ 8AA\J	16f\ 16a\ 16dd\LL	.
.	.	16ee\	.
8A/ 8B/	8r	16f\ 16a\ 16dd\	.
.	.	16ee\JJ	.
=51	=51	=51	=51
4.d/ 4.e/	8r	8.b\ 8.dd\ (8.ggn\L	.
.	8AA\ 8D\L	.	.
.	.	16aa\Jk)	.
.	8EE\ 8AA\J	16b\ 16dd\ 16gg\LL	.
.	.	16aa\	.
8d/ 8e/	8r	16b\ 16dd\ 16gg\	.
.	.	16aa\JJ	.
*v	*v	*	*
=52	=52	=52
8r	[4ccn^\ [4ffn^\ [4cccn^\	f
8e\ 8fn\L	.	.
8EE\ 8E\	16cc\] 16ff\] 16ccc\LL]	.
.	16ddd\	.
8e\ 8f\J	16cc\ 16ff\ 16bb\	.
.	16aa\JJ	.
=53	=53	=53
8r	[4ccn^\ [4ff#^\ [4cccn^\	.
8e^\ 8f#^\L	.	.
8EE\ 8E\	16cc\] 16ff#\] 16ccc\LL]	.
.	16ddd\	.
8e\ 8f#\J	16cc\ 16ff#\ 16bb\	.
.	16aa\JJ	.
=54	=54	=54
8r	[4ccn\ [4ggn\ [4cccn\	<
8e^\ 8gn^\L	.	.
8EE\ 8E\	16cc\] 16gg\] 16ccc\LL]	.
.	16ddd\	.
8e\ 8g\J	16cc\ 16gg\ 16bb\	.
.	16aa\JJ	.
*clefG2	*	*
=55	=55	=55
*	*^	*
8r	(8.cccn/L	8r	ff
(8g#/ 8ccn/L	.	8gg#\L	.
.	16ddd/k	.	.
8e/ 8f#/	8.bb/	8ff#\	.
8g#/) 8cc/J	.	&(8gg#\J&)	.
.	16aa/Jk)	.	.
=56	=56	=56	=56
8r	8.cccn/L	8r	.
(8g#/ 8ccn/L	.	(8gg#\L	.
.	16ddd/k	.	.
8e/ 8f#/	8.bb/	8ff#\	.
8g#/) 8cc/J	.	8gg#\J)	.
.	16aa/Jk	.	.
=57	=57	=57	=57
8r	(2cccn/	8r	.
8g#/ 8ccn/L	.	8gg#\L	.
8d/ 8f#/	.	8ff#\	.
&(8g#/&) 8cc/J	.	&(8gg#\J&)	.
=58	=58	=58	=58
8r	4b/ 4bb/	8r	.
(8g#/ 8ccn/L	.	8gg#\L	.
8d/ 8f#/	4a/ 4aa/)	8ff#\	.
8g#/) 8cc/J	.	&(8gg#\J&)	.
=59	=59	=59	=59
*^	*	*	*
4r	8c#^\ 8g#^\L	(8gg#/L	32r	mp
.	.	.	32a\LLL	.
.	.	.	32cc#\	.
.	.	.	32a\JJ	.
.	8f#\J	8ff#/J	32cc#\LL	.
.	.	.	32a\	.
.	.	.	32cc#\	.
.	.	.	32a\JJJ	.
16g#/LL	[4c#\	([4cc#/)	32r	.
.	.	.	32e\LLL	.
16r	.	.	32g#\	.
.	.	.	32e\JJ	.
16g#/JJ	.	.	32r	.
.	.	.	32e\LL	.
16r	.	.	32g#\	.
.	.	.	32e\JJJ	.
=60	=60	=60	=60	=60
16g#/LL	8c#\L]	8cc#/L]	32r	.
.	.	.	32e\LLL	.
16r	.	.	32g#\	.
.	.	.	32e\JJ	.
16f#/JJ	16B\L	16b/L	32b\LL	.
.	.	.	32d\	.
16r	16c#\JJ	16cc#/JJ	32cc#\	.
.	.	.	32d\JJJ	.
16a/LL	8d\L	8dd/L	32r	.
.	.	.	32f#\LLL	.
16r	.	.	32a\	.
.	.	.	32f#\JJ	.
16b/JJ	16e\L	16ee/L	32ee\LL	.
.	.	.	32g#\	.
16r	16f#\JJ	16ff#/JJ	32ff#\	.
.	.	.	32g#\JJJ	.
=61	=61	=61	=61	=61
16cc#/LL	16g#\LL	8gg#/L	32r	.
.	.	.	32a\LLL	.
16r	16r	.	32cc#\	.
.	.	.	32a\	.
16cc#/	16e\	8ee/	32r	.
.	.	.	32a\	.
16r	16r	.	32cc#\	.
.	.	.	32a\JJJ	.
16cc#/JJ	16g#\JJ	16gg#/Jk)	24r	.
.	.	.	24a\LL	.
16r	16r	16r	.	.
.	.	.	48cc#\JJk	.
.	.	.	48r	.
16cc#/	8f#^\	(8ff#/	32r	.
.	.	.	32a\LLL	.
16r	.	.	32cc#\	.
.	.	.	32a\JJJ	.
=62	=62	=62	=62	=62
16g#/LL	[4c#\	4cc#/	32r	.
.	.	.	32e\LLL	.
16r	.	.	32g#\	.
.	.	.	32e\JJ	.
16g#/JJ	.	.	32r	.
.	.	.	32e\LL	.
16r	.	.	32g#\	.
.	.	.	32e\JJJ	.
16g#/LL	8c#\L]	8cc#/L	32r	<
.	.	.	32e\LLL	.
16r	.	.	32g#\	.
.	.	.	32e\JJ	.
16f#/JJ	16B\L	16b/L	32b\LL	.
.	.	.	32d\	.
16r	16c#\JJ	16cc#/JJ	32cc#\	.
.	.	.	32d\JJJ	.
=63	=63	=63	=63	=63
16a/LL	8d\L	8dd/L	32r	.
.	.	.	32f#\LLL	.
16r	.	.	32a\	.
.	.	.	32f#\JJJ	.
16b/JJ	16e\L	16ee/L	32ee\LLL	.
.	.	.	32g#\	.
16r	16f#\JJ	16ff#/JJ	32ff#\	.
.	.	.	32g#\JJJ	.
16cc#/LL	&(8g#\L&)	8gg#/L)	32r	.
.	.	.	32a\LLL	.
16r	.	.	32cc#\	.
.	.	.	32a\JJ	.
16cc#/JJ	8f#\J	(8ff#/J	32r	.
.	.	.	32a\LL	.
16r	.	.	32cc#\	.
.	.	.	32a\JJJ	.
=64	=64	=64	=64	=64
8a#/ 8ee/L	2f#\	[4ccc#/	32r	.
.	.	.	32cc#\LLL	.
.	.	.	32gg#\	.
.	.	.	32cc#\JJ	.
8a#/	.	.	32r	.
.	.	.	32cc#\LL	.
.	.	.	32gg#\	.
.	.	.	32cc#\JJJ	.
8ee/	.	16ccc#/LL]	32r	.
.	.	.	32cc#\LLL	.
.	.	16ccc#/	32gg#\	.
.	.	.	32cc#\JJ	.
&(8a#/J&)	.	16ddd/	32ggn\LL	.
.	.	.	32ee\	.
.	.	16eee/JJ	32gg\	.
.	.	.	32ee\JJJ	.
*v	*v	*	*	*
=65	=65	=65	=65
(8dd'/L	8ccc#/L	32r	.
.	.	32cc#\LLL	.
.	.	32ff#\	.
.	.	32cc#\JJ	.
8dd'/J)	16bb/L	32ee\LL	.
.	.	32b\	.
.	16gg#/JJ	32gg#\	.
.	.	32b\JJJ	.
(8B/ 8d#/ 8a/L	8ff#/L	32r	.
.	.	32f#\LLL	.
.	.	32cc#\	.
.	.	32f#\JJ	.
8dn/) 8f#/ 8ccn/J	8aa/J)	32r	.
.	.	32a\LL	.
.	.	32ee\	.
.	.	32a\JJJ	.
=66	=66	=66	=66
*^	*	*	*
8a#/ 8ee/L	2f#\	([4ccc#/	32r	.
.	.	.	32cc#\LLL	.
.	.	.	32gg#\	.
.	.	.	32cc#\JJ	.
8a#/	.	.	32r	.
.	.	.	32cc#\LL	.
.	.	.	32gg#\	.
.	.	.	32cc#\JJJ	.
8ee/	.	16ccc#/LL]	32r	.
.	.	.	32cc#\LLL	.
.	.	16ccc#/	32gg#\	.
.	.	.	32cc#\JJ	.
&(8a#/J&)	.	16ddd/	32ggn\LL	.
.	.	.	32ee\	.
.	.	16eee/JJ	32gg\	.
.	.	.	32ee\JJJ	.
=67	=67	=67	=67	=67
(8dd'/L	4e\ 4g#\	16ccc#/LL	32ff#\LLL	.
.	.	.	32cc#\	.
.	.	16bb/	32ee\	.
.	.	.	32b\JJ	.
8dd'/J)	.	16ccc#/	32ff#\LL	.
.	.	.	32cc#\	.
.	.	16gg#/JJ	32gg#\)	.
.	.	.	32g#\JJJ	<
8B/ 8d#/ 8a/L	4r	32r	4r	.
.	.	(32f#/LLL	.	.
.	.	32cc#/ 32ff#/	.	.
.	.	32f#/JJ)	.	.
8dn/ 8f#/ 8ccn/J	.	32r	.	.
.	.	(32a/LL	.	.
.	.	32ee/ 32aa/	.	.
.	.	32a/JJJ)	.	.
*	*	*v	*v	*
=68	=68	=68	=68
8dd'/L	4e\ 4g#\	32r	.
.	.	(32cc#\LLL	<
.	.	32ff#\ 32ccc#\	.
.	.	32cc#\JJ	.
8dd'/J	.	16b\ 16ee\ 16bb\L	.
.	.	16gg#\JJ)	.
(8B/ 8d#/ 8a/L	4r	32r	.
.	.	(32f#/LLL	.
.	.	32cc#/ 32ff#/	.
.	.	32f#/JJ)	.
8dn/) 8f#/ 8ccn/J	.	32r	.
.	.	(32a/LL	.
.	.	32ee/ 32aa/	.
.	.	32a/JJJ)	.
*v	*v	*	*
=69	=69	=69
4e/ 4g#/ 4dd/	8cc#\ 8ff#\ (8ccc#\L	f
.	16b\ 16ee\ 16bb\L	.
.	16gg#\JJ)	.
4B/ 4d#/ 4a/	8g#\ 8cc#\ (8gg#\L	>
.	16f#\ 16b\ 16ff#\L	.
.	16dd#\JJ)	.
=70	=70	=70
*	*^	*
4G#/ 4B#/ 4f#/	8d#/ 8a#/ 8dd#/L	4r	.
.	16B#/ 16g#/ 16b#/L	.	.
.	16a#/JJ	.	.
*clefF4	*	*	*
4C#\ 4E#\	8a#/L	4Bn\ 4d#\	.
.	16g#/L	.	.
.	16e#/JJ	.	.
*	*v	*v	*
=71	=71	=71
*k[f#c#g#d#a#e#]	*k[f#c#g#d#a#e#]	*k[f#c#g#d#a#e#]
*	*^	*
8r	(4..g#/	8r	p
8BB\ 8F#\L	.	8d#\L	>
8AA#\ 8E#\	.	&(8c##\&)	.
8C#\ &(8G#\J&)	.	8e#\J	.
.	16a#/	.	.
=72	=72	=72	=72
8r	4..g#/	8r	.
8BB\ 8F#\L	.	8d#\L	>
8AA#\ 8E#\	.	8c##\	.
8C#\ &(8G#\J&)	.	&(8e#\J&)	.
.	16a#/	.	.
=73	=73	=73	=73
8r	[4g#/	8r	.
8BB\ 8F#\	.	8d#\L	>
*	*v	*v	*
*	*^	*
4AA#\ &(4E#\&)	16g#/LL]	8c##\	.
.	16a#/	.	.
.	16cc#/	&(8c#\J&)	.
.	16a#/JJ	.	.
=74	=74	=74	=74
8r	8f#/L	8r	.
4GG#\ (4D#\	16g#/L	8B#\L	>
.	16a#/JJ	.	.
.	8f#/L	8Bn\	.
8C#\)	8e#/J)	8A#\J	.
=75	=75	=75	=75
8r	([4g#/	8r	.
8BB\ 8F#\	.	8d#\L	>
*	*v	*v	*
*	*^	*
4AA#\ &(4E#\&)	16g#/LL]	8c##\	.
.	16a#/	.	.
.	16cc#/	&(8c#\J&)	.
.	16a#/JJ	.	.
=76	=76	=76	=76
8r	8f#/L	8r	.
4GG#\ 4D#\	16g#/L	8B#\L	>
.	16a#/JJ	.	.
.	8f#/L	8Bn\	.
&(8C#\&)	8e#/J	&(8A#\J&)	.
*	*v	*v	*
*	*clefF4	*clefF4
=77	=77	=77
*	*^	*
8r	4d#/	8r	.
(4GGG#/ 4GG#/	.	4F#\ 4B\	>
.	4c#/)	.	.
8AAA#/) 8AA#/	.	&(8E#\&) 8A#\	.
*	*v	*v	*
*	*clefG2	*clefG2
=78	=78	=78
*^	*^	*
4d#/	8d#\L	8ff#/L	8r	ppp
.	8D#\ 8B#\	16ee#/L	(4f#\	.
.	.	16cc#/JJ	.	.
4c#/	8c#\	4a#/	.	.
.	8D#\ 8A#\J	.	8e#\)	.
=79	=79	=79	=79	=79
4d#/	8d#\L	8ff#/L	8r	.
.	8D#\ 8B#\	16ee#/L	(4f#\	.
.	.	16cc#/JJ	.	.
4c#/	8c#\	4a#/	.	.
.	8D#\ 8A#\J	.	8e#\)	.
=80	=80	=80	=80	=80
4d#/	8d#\L	8ff#/L	8r	.
.	8D#\ 8B#\	16ee#/L	(4f#\	.
.	.	16cc#/JJ	.	.
4c#/	8c#\	8a#/L	.	.
.	8D#\ 8A#\J	8cc#/J	8e#\)	.
*	*	*v	*v	*
*	*	*clefF4	*clefF4
=81	=81	=81	=81
8r	4.CC#;\ 4.GG#;\	4D#\ 4Bn\ (4e#\	.
*clefG2	*clefG2	*	*
8b/ 8cc#/L	.	.	.
*clefF4	*clefF4	*	*
8E#;/ 8B;/ 8c#;/J	.	8d#;\ 8a#;\)	.
*	*	*clefG2	*clefG2
8r	8FF#\ 8C#\	8A#/ (8f#/	pp
=82	=82	=82	=82
8r	&(4.EEn\&) 4.BB\	4.G#/ 4.A#/ 4.c#/)	.
*clefG2	*clefG2	*	*
4b/ 4cc#/	.	.	.
*clefF4	*clefF4	*	*
8r	8FF#\ 8C#\	8A#/ 8f#/	>
=83	=83	=83	=83
8r	4.EEn\ 4.BB\	4.G#/ 4.B/ 4.c#/	.
*clefG2	*clefG2	*	*
4b/ 4cc#/	.	.	.
*clefF4	*clefF4	*	*
8r	8FF#\ 8C#\	8A#/ (8f#/	.
*v	*v	*	*
=84	=84	=84
*	*^	*
4EEn\ 4BB\	8c#/L	4B\	<
.	16B/L	.	.
.	16c#/JJ	.	.
4DDn\ 4AAn\	8dn/L	4F#\ 4B#\	.
.	16en/L	.	.
.	16f#/JJ	.	.
*	*v	*v	*
=85	=85	=85
*^	*	*
8r	&(4.FFF#\&) 4.CC#\	4.A#/ 4.c#/ 4.g#/)	.
*clefG2	*clefG2	*	*
4a#/ 4cc#/	.	.	.
*clefF4	*clefF4	*	*
8r	8AAn\ 8En\	8An\ 8B#\ (8en\	.
=86	=86	=86	=86
*	*	*^	*
8r	4.FF#\ &(4.C#\&)	8r	4.A#\ 4.c#\ 4.g#\)	.
*clefG2	*clefG2	*	*	*
4a#/	.	4cc#/ 4aa#/ 4ccc#/	.	.
*clefF4	*clefF4	*	*	*
8r	8An\ 8en\	(16een/LL	8an\ 8b#\	ppp
*	*	*v	*v	*
*	*	*^	*
.	.	16ff#/JJ	.	.
=87	=87	=87	=87	=87
8r	2F#\ &(2c#\&)	8r	2a#\ 2cc#\ 2gg#\)	.
*clefG2	*clefG2	*	*	*
*	*	*8va	*	*
4.aa#;/	.	4.ccc#;/ 4.aaa#;/ 4.cccc#;/	.	.
*	*	*X8va	*	*
*v	*v	*	*	*
*	*v	*v	*
==	==	==
*-	*-	*-
!!!ENC: Craig Stuart Sapp
!!!END: 2004/11/17/
